X:168050
H:
T:Cock of the North
C:Traditional (predates 1816)(SG Pipe Call - CSM)
B: Scots Guard I
O:Kevin Fraser
Z:Kevin Fraser
Q:3/8=90
K:HP
M:6/8
L:1/8
R:March
U: R = ///
U: r = //
U: V = !accent!
V:M gstem=up stem=down name="Melody"
V:H gstem=up stem=down name="Harmony"
V:C gstem=up stem=down name="C-Harmony"
V:S gstem=up stem=down dyn=up stafflines=1 clef=none middle=B name="Snare" sname="Snare"" sname="Snare"
V:B gstem=up stem=down clef=none dyn=up name="Bass"
V:T gstem=up stem=down clef=none dyn=up name="Tenor"
V:BB gstem=up stem=down name="Brass Bass" sname="ABCD-C" transpose=-1  octave=-1 clef=bass
V:BC gstem=up stem=down name="Brass Chord" sname="ABCD-D" transpose=-1
V:BD gstem=up stem=down name="Brass Chord 2" sname="ABCD-B" transpose=-1
V:P gstem=up stem=down name="Piano" octave=-1
I:MIDI=program 110
%%MIDI gracedivider 4
% %score {M H}
%%MIDI program 109 #bagpipes
%%MIDI vol 100
%%landscape
[V:M]|: a2     | c<{e}A{d}c {gBd}B2 {G}A  | {g}A>{d}ce {gfg}f2 e | {g}c<{e}A{d}c {gcd}c>{g}B{e}A | {g}B3 {GdGe}B2 a| !
[V:M]          | c<{e}A{d}c {gBd}B2 {G}A  | {g}A>{d}ce {gfg}f2 e | {g}c<{e}A{d}c {gBd}B2 {e}G    | {g}A3 {GAG}A2  :| !
[V:M]|:  {gf}g  | {ag}a2 e {gfg}f2 e       | {ag}a2 e {gfg}f2 e   | {g}c<{e}A{d}c {gcd}c>{g}B{d}A | {g}B3 {GdGe}B2 | !
[V:M]          [1 {gf}g | {ag}a2 e {gfg}f2 e       | {ag}a2 e {gfg}f2 e   | {g}c<{e}A{d}c {gBd}B2 {e}G    | {g}A3 {GAG}A2   :| !
[V:M]          [2 {g}c/<d/ | {g}c<ec {gBd}B2 {G}A     | {g}A>{d}ce {gfg}f2 e | {g}c<{e}A{d}c {gBd}B2 {e}G    | {g}A3 {GAG}A2  || !
[V:M]|: a  | c2{GdGe}c {gcd}c{g}B{e}A | {g}c2 {GdG}e {gfg}f2e| {g}c2{GdGe}c  {gcd}c>{g}B{e}A | {g}B3 {GdGe}B2 a| !
[V:M]          | c2{GdGe}c {gcd}c{g}B{e}A | {g}c2 {GdG}e {gfg}f2e| {g}c<{e}A{d}c {gBd}B2 {e}G    | {g}A3 {GAG}A2  :| !
[V:M]|:  {gf}g  | {ag}a2 e {gfg}f2 e       | {g}f<ae {gfg}f2 e    | {g}c<{e}A{d}c {gcd}c>{g}B{e}A | {g}B3 {GdGe}B2 | !
[V:M]          [1 {gf}g| {ag}a2 e {gfg}f2 e       | {g}f<ae {gfg}f2 e    | {g}c<{e}A{d}c {gBd}B2 {e}G    | {g}A3 {GAG}A2  :| !
[V:M]          [2 {g}c/<d/| {g}c<ec {gBd}B2 {G}A     | {g}A>{d}ce {gfg}f2 e | {g}c<{e}A{d}c {gBd}B2 {e}G    | {g}A3 {GAG}A2  |] !
[V:S]    |:A| (rc3 {c}A2) {A}c | z/2(3A/2c/2A/2c A>c{c}A | {A}c>A{A}c (rc3 | c)>A{A}c {c}A2 A | !
[V:S]| (rc3 {c}A2) {A}c | z/2(3A/2c/2A/2c A>c{c}A | {A}c>A{A}c (rc3 | c)>A{A}c {c}>A2  :|  !
[V:S]|: A| (rc2A) (rc2A)      | (3cAc{c}A {A}c>Ac  | {A}c>A{A}c (rc3 | c)>A{A}c {c}>A2 A| !
[V:S]|  (rc2A) (rc2A)      | (3cAc{c}A {A}c>Ac  | {A}c>A{A}c (rc3 | c)>A{A}c {c}>A2  :| !

